X:94
T:The Coulin
M:4/4
L:1/8
R:march
N:Learned from Howard Chu
Z:Michael Abraham Shulman
N:This tune is often played as an air.  Highland Sun plays it that
N:way, followed by the same tune as a march (as given here).
K:G
GBd|:g>f gb ab gG|Bd g>f gb ab|g>a gf e3 f/g/|
a/g/f/e/ d>c Bd gd|f/e/d/c/ BG AF G2|1G4 G2 Bd:|2G4 G4|
|:d>c BA GF GA|Bc d^c de fd|g>f gb ab g>a|
gf e2 ef/g/ a/g/f/e/|d>c Bd gd f/e/d/c/|BG AF G4:|
